public/img/svg/koya.svg

<svg width="82" height="45" xmlns="http://www.w3.org/2000/svg">

 <g>
  <title>background</title>
  <rect fill="none" id="canvas_background" height="47" width="84" y="-1" x="-1"/>
 </g>
 <g>
  <title>Layer 1</title>
  <path id="svg_2" fill="black" d="m4.09375,33l0,-27.31641l2.74219,0l0,17.89451l8.22656,-9.4922l3.585899,0l-6.749999,7.5586l7.523499,11.355499l-3.304699,0l-5.976601,-9.457001l-3.30466,3.691401l0,5.7656l-2.74219,0zm19.054649,-9.457001c0,2.3906 0.5508,4.289001 1.652401,5.695301c1.1015,1.4062 2.472599,2.1094 4.1133,2.1094c1.6171,0 2.9765,-0.703199 4.078098,-2.1094c1.125,-1.4063 1.6875,-3.304701 1.6875,-5.695301c0,-2.4375 -0.5625,-4.3477 -1.6875,-5.730499c-1.124998,-1.382799 -2.4844,-2.0742 -4.078098,-2.0742c-1.617201,0 -2.9883,0.691401 -4.1133,2.0742c-1.101601,1.382799 -1.652401,3.292999 -1.652401,5.730499zm-2.742199,0c0,-2.882799 0.7383,-5.2852 2.214899,-7.2071c1.5,-1.9218 3.5977,-2.882799 6.293001,-2.882799c2.671799,0 4.757801,0.960999 6.257801,2.882799c1.5,1.9219 2.25,4.324301 2.25,7.2071c0,1.2187 -0.164101,2.4023 -0.492203,3.5508c-0.304699,1.148401 -0.785198,2.2265 -1.441399,3.234301c-0.632801,0.9844 -1.523499,1.781301 -2.671902,2.390699c-1.124998,0.609299 -2.425798,0.914001 -3.902298,0.914001c-1.453201,0 -2.753901,-0.292999 -3.902401,-0.878902c-1.125,-0.609398 -2.0156,-1.406199 -2.6719,-2.390598c-0.632799,-1.007801 -1.113199,-2.086 -1.441401,-3.2344c-0.3281,-1.148401 -0.492199,-2.3437 -0.492199,-3.585901zm18.8438,-9.457099l3.164101,0l3.902298,11.0743c0.585903,1.6406 1.1133,3.234301 1.582001,4.7812l0.140701,0c0.351498,-1.148401 0.8671,-2.742201 1.546799,-4.7812l3.726601,-11.0743l3.0937,0l-8.1562,22.0782c-0.703098,1.875 -1.523399,3.1875 -2.460899,3.9375c-0.914101,0.773399 -2.039101,1.160099 -3.375,1.160099l-1.054699,0l0,-2.25l0.632797,0c0.890602,0 1.640602,-0.257801 2.25,-0.773399c0.632801,-0.515602 1.195301,-1.441399 1.6875,-2.777401l0.703102,-2.214798l-7.382801,-19.160201zm21.058601,14.062499c0,0.890701 0.375,1.652401 1.125,2.2852c0.75,0.6094 1.7812,0.914101 3.093697,0.914101c1.664101,0 3.0821,-0.539101 4.253899,-1.617201c1.195404,-1.078199 1.793007,-2.449299 1.793007,-4.113298l0,-2.636702c-1.031204,0.257801 -2.671906,0.5625 -4.921906,0.914001c-1.828098,0.328199 -3.175697,0.8321 -4.042896,1.5117c-0.867203,0.679699 -1.3008,1.5938 -1.3008,2.742199zm-2.742203,0.211c0,-3.5156 2.7188,-5.695299 8.156303,-6.539101c2.4375,-0.398399 4.054596,-0.7265 4.851501,-0.9844l0,-1.0898c0,-1.1719 -0.421906,-2.144499 -1.265602,-2.917999c-0.843803,-0.773399 -2.039101,-1.1601 -3.585899,-1.1601c-1.125,0 -2.214901,0.2695 -3.269604,0.8086c-1.031197,0.5156 -1.910099,1.218699 -2.6367,2.109299l-1.757797,-1.4765c0.9375,-1.078199 2.0625,-1.9571 3.375,-2.6367c1.335899,-0.6797 2.742195,-1.0196 4.218697,-1.0196c5.0625,0 7.593803,2.4727 7.593803,7.417999l0,12.128901l-2.601601,0l0,-3.0938c-0.375,1.0079 -1.148399,1.886799 -2.320297,2.636799c-1.171906,0.726501 -2.554703,1.089802 -4.148407,1.089802c-2.085995,0 -3.714897,-0.492203 -4.886696,-1.476601c-1.148502,-0.984301 -1.722702,-2.25 -1.722702,-3.796801z" opacity="0.5"/>
 </g>
</svg>

<svg width="86" height="45" viewBox="0 0 86 45" fill="none" xmlns="http://www.w3.org/2000/svg">
<circle cx="82.5" cy="29.5" r="3.5" fill="#D31E1E"/>
<path opacity="0.5" d="M4.09375 33V5.68359H6.83594V23.5781L15.0625 14.0859H18.6484L11.8984 21.6445L19.4219 33H16.1172L10.1406 23.543L6.83594 27.2344V33H4.09375ZM23.1484 23.543C23.1484 25.9336 23.6992 27.832 24.8008 29.2383C25.9023 30.6445 27.2734 31.3477 28.9141 31.3477C30.5312 31.3477 31.8906 30.6445 32.9922 29.2383C34.1172 27.832 34.6797 25.9336 34.6797 23.543C34.6797 21.1055 34.1172 19.1953 32.9922 17.8125C31.8672 16.4297 30.5078 15.7383 28.9141 15.7383C27.2969 15.7383 25.9258 16.4297 24.8008 17.8125C23.6992 19.1953 23.1484 21.1055 23.1484 23.543ZM20.4062 23.543C20.4062 20.6602 21.1445 18.2578 22.6211 16.3359C24.1211 14.4141 26.2188 13.4531 28.9141 13.4531C31.5859 13.4531 33.6719 14.4141 35.1719 16.3359C36.6719 18.2578 37.4219 20.6602 37.4219 23.543C37.4219 24.7617 37.2578 25.9453 36.9297 27.0938C36.625 28.2422 36.1445 29.3203 35.4883 30.3281C34.8555 31.3125 33.9648 32.1094 32.8164 32.7188C31.6914 33.3281 30.3906 33.6328 28.9141 33.6328C27.4609 33.6328 26.1602 33.3398 25.0117 32.7539C23.8867 32.1445 22.9961 31.3477 22.3398 30.3633C21.707 29.3555 21.2266 28.2773 20.8984 27.1289C20.5703 25.9805 20.4062 24.7852 20.4062 23.543ZM39.25 14.0859H42.4141L46.3164 25.1602C46.9023 26.8008 47.4297 28.3945 47.8984 29.9414H48.0391C48.3906 28.793 48.9062 27.1992 49.5859 25.1602L53.3125 14.0859H56.4062L48.25 36.1641C47.5469 38.0391 46.7266 39.3516 45.7891 40.1016C44.875 40.875 43.75 41.2617 42.4141 41.2617H41.3594V39.0117H41.9922C42.8828 39.0117 43.6328 38.7539 44.2422 38.2383C44.875 37.7227 45.4375 36.7969 45.9297 35.4609L46.6328 33.2461L39.25 14.0859ZM60.3086 28.1484C60.3086 29.0391 60.6836 29.8008 61.4336 30.4336C62.1836 31.043 63.2148 31.3477 64.5273 31.3477C66.1914 31.3477 67.6094 30.8086 68.7812 29.7305C69.9766 28.6523 70.5742 27.2812 70.5742 25.6172V22.9805C69.543 23.2383 67.9023 23.543 65.6523 23.8945C63.8242 24.2227 62.4766 24.7266 61.6094 25.4062C60.7422 26.0859 60.3086 27 60.3086 28.1484ZM57.5664 28.3594C57.5664 24.8438 60.2852 22.6641 65.7227 21.8203C68.1602 21.4219 69.7773 21.0938 70.5742 20.8359V19.7461C70.5742 18.5742 70.1523 17.6016 69.3086 16.8281C68.4648 16.0547 67.2695 15.668 65.7227 15.668C64.5977 15.668 63.5078 15.9375 62.4531 16.4766C61.4219 16.9922 60.543 17.6953 59.8164 18.5859L58.0586 17.1094C58.9961 16.0312 60.1211 15.1523 61.4336 14.4727C62.7695 13.793 64.1758 13.4531 65.6523 13.4531C70.7148 13.4531 73.2461 15.9258 73.2461 20.8711V33H70.6445V29.9062C70.2695 30.9141 69.4961 31.793 68.3242 32.543C67.1523 33.2695 65.7695 33.6328 64.1758 33.6328C62.0898 33.6328 60.4609 33.1406 59.2891 32.1562C58.1406 31.1719 57.5664 29.9062 57.5664 28.3594Z" fill="black"/>
</svg>
